X:186
T:Amelia
R:waltz
C:Bob McQuillen
N:Bob McQuillen 12 Mar 81 -
N:Now here is a tune for
N:Deanna's sweet daughter;
N:If you haven't met her yet,
N:You really ought ter.
M:3/4
L:1/4
Q:132
K:D
D>E D | D F>E | D F B | A2 A | B>G B | A F E | D B,>B, | B,2 A, |
D>E D | D F>E | D F B | A2 A | B>c d | d e f | e>c A |1 A2 D :|2A2 a |
|:f a>f | a f d | e>c A | A2 f/e/ | d>B d | f d B | c>A F | F2 A|
G B>G | F A d | e>c A | d2 f | g>f e | a f d | d e>c |1 d2 a :|2 d2 D ||
